file/hilton.svg

<svg clip-rule="evenodd" fill-rule="evenodd" stroke-linejoin="round" stroke-miterlimit="1.41421" viewBox="0 0 560 400" xmlns="http://www.w3.org/2000/svg"><g fill-rule="nonzero" transform="matrix(.0316623 0 0 -.0316623 100 266.807)"><path d="m0 2110v-2110h11370v4220h-5685-5685zm11180 0v-1920l-5492 2-5493 3-3 1918-2 1917h10990z"/><path d="m980 3196v-54l43-7c23-3 57-9 75-12l32-5-2-1007-3-1006-72-8-73-9v-59-59h760v118l-72 9-73 8-3 458-2 457h1000v-454c0-379-2-455-14-459-8-3-46-9-85-13l-71-7v-58-59h780v118l-67 7c-36 4-72 9-80 12-11 4-13 184-13 1008v1003l40 6c22 3 58 9 80 12l40 6v108h-390-390v-54-54l48-6c26-4 64-9 85-12l37-6v-429-429h-500-500v858l43 7c118 18 107 11 107 71v54h-380-380z"/><path d="m3789 3222c-208-108-125-422 111-422 71 0 126 26 172 79 75 88 75 204-1 292-70 83-183 103-282 51z"/><path d="m4570 3201v-49l68-8 67-9 3-1022 2-1021-27-6c-16-3-47-8-70-11l-43-7v-49-49h710v98l-42 7c-24 3-55 8-70 11l-28 6v2158h-285-285z"/><path d="m5943 2996-203-61v-172-173h-155-155v-75-75h299l3-607c4-676 4-669 73-765 105-144 419-159 793-37l62 21v110l-30-7c-17-4-88-7-158-7-182-1-240 21-284 110l-23 47-3 568-3 567h381v150h-190-190v235c0 129-3 235-7 234-5-1-99-29-210-63z"/><path d="m7480 2634c-150-20-337-95-442-178-123-98-222-254-268-421-31-112-39-361-16-494 33-186 87-301 196-411 130-131 309-195 580-206 286-13 520 63 690 223 161 151 236 326 247 573 7 157-8 276-51 402-44 131-86 198-181 293-65 66-98 89-175 128-131 64-232 87-405 92-77 2-156 1-175-1zm180-124c117-22 197-89 255-215 63-136 85-268 85-519 0-501-122-727-395-728-99-1-171 27-232 91-127 130-189 432-163 786 26 355 133 547 323 585 59 11 68 11 127 0z"/><path d="m9712 2619c-125-16-279-85-410-184-40-30-78-55-83-55s-9 47-9 105v105h-285-285v-54-54l48-6c26-4 59-9 75-12l27-6v-683-683l-57-6c-93-11-93-11-93-67v-49h720v50c0 28-3 50-7 51-5 1-37 6-73 13l-65 11v1160l50 33c28 18 86 47 130 64 69 28 92 32 170 33 99 0 145-17 197-72 79-83 90-176 86-763l-3-455-65-11c-36-7-68-12-72-13-5-1-8-23-8-51v-50h720v49c0 56 0 56-92 66l-57 7-3 582c-3 576-4 582-27 651-31 95-61 144-121 198-59 53-134 84-234 97-80 11-87 11-174-1z"/><path d="m3540 2541v-49l48-6c26-4 59-9 75-12l27-6-2-686-3-687-65-11c-36-7-68-12-72-13-5-1-8-23-8-51v-50h721l-3 46c-4 55-11 61-90 69l-58 6v1499h-285-285z"/></g></svg>

<?xml version="1.0" encoding="UTF-8" standalone="no"?>
<!DOCTYPE svg PUBLIC "-//W3C//DTD SVG 1.1//EN" "http://www.w3.org/Graphics/SVG/1.1/DTD/svg11.dtd">
<svg width="100%" height="100%" viewBox="0 0 560 400" version="1.1" xmlns="http://www.w3.org/2000/svg" xmlns:xlink="http://www.w3.org/1999/xlink" xml:space="preserve" xmlns:serif="http://www.serif.com/" style="fill-rule:evenodd;clip-rule:evenodd;stroke-linejoin:round;stroke-miterlimit:1.41421;">
    <g transform="matrix(0.0316623,6.16298e-34,-6.16298e-34,-0.0316623,100,266.807)">
        <path d="M0,2110L0,0L11370,0L11370,4220L5685,4220L0,4220L0,2110ZM11180,2110L11180,190L5688,192L195,195L192,2113L190,4030L11180,4030L11180,2110Z" style="fill-rule:nonzero;"/>
        <path d="M980,3196L980,3142L1023,3135C1046,3132 1080,3126 1098,3123L1130,3118L1128,2111L1125,1105L1053,1097L980,1088L980,1029L980,970L1740,970L1740,1088L1668,1097L1595,1105L1592,1563L1590,2020L2590,2020L2590,1566C2590,1187 2588,1111 2576,1107C2568,1104 2530,1098 2491,1094L2420,1087L2420,1029L2420,970L3200,970L3200,1088L3133,1095C3097,1099 3061,1104 3053,1107C3042,1111 3040,1291 3040,2115L3040,3118L3080,3124C3102,3127 3138,3133 3160,3136L3200,3142L3200,3250L2810,3250L2420,3250L2420,3196L2420,3142L2468,3136C2494,3132 2532,3127 2553,3124L2590,3118L2590,2689L2590,2260L2090,2260L1590,2260L1590,3118L1633,3125C1751,3143 1740,3136 1740,3196L1740,3250L1360,3250L980,3250L980,3196Z" style="fill-rule:nonzero;"/>
        <path d="M3789,3222C3581,3114 3664,2800 3900,2800C3971,2800 4026,2826 4072,2879C4147,2967 4147,3083 4071,3171C4001,3254 3888,3274 3789,3222Z" style="fill-rule:nonzero;"/>
        <path d="M4570,3201L4570,3152L4638,3144L4705,3135L4708,2113L4710,1092L4683,1086C4667,1083 4636,1078 4613,1075L4570,1068L4570,1019L4570,970L5280,970L5280,1068L5238,1075C5214,1078 5183,1083 5168,1086L5140,1092L5140,3250L4855,3250L4570,3250L4570,3201Z" style="fill-rule:nonzero;"/>
        <path d="M5943,2996L5740,2935L5740,2763L5740,2590L5585,2590L5430,2590L5430,2515L5430,2440L5729,2440L5732,1833C5736,1157 5736,1164 5805,1068C5910,924 6224,909 6598,1031L6660,1052L6660,1162L6630,1155C6613,1151 6542,1148 6472,1148C6290,1147 6232,1169 6188,1258L6165,1305L6162,1873L6159,2440L6540,2440L6540,2590L6350,2590L6160,2590L6160,2825C6160,2954 6157,3060 6153,3059C6148,3058 6054,3030 5943,2996Z" style="fill-rule:nonzero;"/>
        <path d="M7480,2634C7330,2614 7143,2539 7038,2456C6915,2358 6816,2202 6770,2035C6739,1923 6731,1674 6754,1541C6787,1355 6841,1240 6950,1130C7080,999 7259,935 7530,924C7816,911 8050,987 8220,1147C8381,1298 8456,1473 8467,1720C8474,1877 8459,1996 8416,2122C8372,2253 8330,2320 8235,2415C8170,2481 8137,2504 8060,2543C7929,2607 7828,2630 7655,2635C7578,2637 7499,2636 7480,2634ZM7660,2510C7777,2488 7857,2421 7915,2295C7978,2159 8000,2027 8000,1776C8000,1275 7878,1049 7605,1048C7506,1047 7434,1075 7373,1139C7246,1269 7184,1571 7210,1925C7236,2280 7343,2472 7533,2510C7592,2521 7601,2521 7660,2510Z" style="fill-rule:nonzero;"/>
        <path d="M9712,2619C9587,2603 9433,2534 9302,2435C9262,2405 9224,2380 9219,2380C9214,2380 9210,2427 9210,2485L9210,2590L8925,2590L8640,2590L8640,2536L8640,2482L8688,2476C8714,2472 8747,2467 8763,2464L8790,2458L8790,1775L8790,1092L8733,1086C8640,1075 8640,1075 8640,1019L8640,970L9360,970L9360,1020C9360,1048 9357,1070 9353,1071C9348,1072 9316,1077 9280,1084L9215,1095L9215,2255L9265,2288C9293,2306 9351,2335 9395,2352C9464,2380 9487,2384 9565,2385C9664,2385 9710,2368 9762,2313C9841,2230 9852,2137 9848,1550L9845,1095L9780,1084C9744,1077 9712,1072 9708,1071C9703,1070 9700,1048 9700,1020L9700,970L10420,970L10420,1019C10420,1075 10420,1075 10328,1085L10271,1092L10268,1674C10265,2250 10264,2256 10241,2325C10210,2420 10180,2469 10120,2523C10061,2576 9986,2607 9886,2620C9806,2631 9799,2631 9712,2619Z" style="fill-rule:nonzero;"/>
        <path d="M3540,2541L3540,2492L3588,2486C3614,2482 3647,2477 3663,2474L3690,2468L3688,1782L3685,1095L3620,1084C3584,1077 3552,1072 3548,1071C3543,1070 3540,1048 3540,1020L3540,970L4261,970L4258,1016C4254,1071 4247,1077 4168,1085L4110,1091L4110,2590L3825,2590L3540,2590L3540,2541Z" style="fill-rule:nonzero;"/>
    </g>
</svg>
